X:1
T:Title
%%score { 1 | 2 }
L:1/8
M:4/4
K:Bb
V:1 treble nm="Grand Piano"
V:2 bass 
V:1
 z4 z2[Q:1/4=106] [B,D]>[CE] | [DF]2 [DF]2 [EG]2 [EG]2 | [DF]2 [DB]4 [FB]>[FB] | %3
 [GB]2 [GB]2 [FA]2 [EG]2 | [DF]6 [DF]2 | F2 A2 G2 F2 | [DB]2 [Fd]4 [DB]2 | %7
 [=EG]2 [Ec]2 [Ec]2 [EG]2 | [Ec]6 [B,D]>[CE] | [DF]2 [DF]2 [EG]2 [EG]2 |[M:3/4] [DF]2 [DB]4 | %11
[M:1/4] [FB]>[FB] |[M:4/4] [GB]2 [GB]2 [FA]2 [EG]2 | [DF]6 [DB]2 | B2 B2 A2 G2 | %15
 F2 [FB]2 [Fc]2 [Fd]2 | [=Ec]4 [EG]4 |[M:3/4] [Ec]6 |[M:1/4] [B,D]>[CE] | %19
[M:4/4] [DF]2 [DF]2 [EG]2 [EG]2 | [DF]6 A>B | c2 c2 c2 d2 | [DB]6 [FB]2 | [GB]2 [GB]2 [FA]2 [EG]2 | %24
 [DB]2 [DF]2 [DF]2 [DB]2 | c2 c2 c2 d2 | [DB]2 [EG]2 [DF]2 [B,D]>[CE] | [DF]2 [DF]2 [EG]2 [EG]2 | %28
[M:3/4] [DF]6 |[M:1/4] A>B |[M:4/4] c2 c2 c2 d2 | B6 z2 | B2 B2 A2 G2 | F2 [FB]2 [Fc]2 [Fd]2 | %34
 [Fe]4 [EA]4 |[M:3/4] [DB]6 |] %36
V:2
 z4 z2 [B,,F,]>[B,,F,] | [B,,B,]2 [B,,B,]2 [E,B,]2 [E,B,]2 | [B,,B,]2 [B,,F,]4 [D,B,]>[D,B,] | %3
 [E,E]2 [E,E]2 [E,E]2 [E,B,]2 | [B,,B,]6 [B,,B,]2 | [F,A,E]2 [F,CE]2 [F,B,E]2 [F,A,E]2 | %6
 [B,,B,]2 [B,,B,]4 [B,,B,]2 | [C,B,]2 [C,G,]2 [C,G,]2 [C,B,]2 | [F,A,]6 [B,,F,]>[B,,F,] | %9
 [B,,B,]2 [B,,B,]2 [E,B,]2 [E,B,]2 |[M:3/4] [B,,B,]2 [B,,B,]4 |[M:1/4] [D,B,]>[D,B,] | %12
[M:4/4] [F,B,]2 [E,B,]2 [E,B,]2 [E,B,]2 | [B,,B,]6 [B,,B,]2 | %14
 [E,G,E]2 [E,G,E]2 [=E,A,_D]2 [E,B,D]2 | [F,B,D]2 [D,B,]2 [C,A,]2 [B,,B,]2 | [C,G,]4 [C,B,]4 | %17
[M:3/4] [F,A,]6 |[M:1/4] [B,,F,]>[B,,F,] |[M:4/4] [B,,B,]2 [B,,B,]2 [E,B,]2 [E,B,]2 | %20
 [B,,B,]6 [F,CE]>[F,B,E] | [F,A,E]2 [F,A,E]2 [F,A,E]2 [F,A,F]2 | [B,,B,]6 [D,B,]2 | %23
 [E,B,]2 [E,B,]2 [E,B,]2 [E,B,]2 | [B,,B,]2 [B,,B,]2 [B,,B,]2 [B,,B,]2 | %25
 [F,A,E]2 [F,A,E]2 [F,A,E]2 [F,B,F]2 | [B,,B,]2 [B,,B,]2 [B,,B,]2 [B,,F,]>[B,,F,] | %27
 [B,,B,]2 [B,,B,]2 [E,B,]2 [E,B,]2 |[M:3/4] [B,,B,]6 |[M:1/4] [F,CE]>[F,B,E] | %30
[M:4/4] [F,A,E]2 [F,A,E]2 [F,A,E]2 [F,A,F]2 | [G,B,D]6 z2 | [E,G,E]2 [E,G,E]2 [=E,A,_D]2 [E,B,D]2 | %33
 [F,B,D]2 [D,B,]2 [C,A,]2 [B,,B,]2 | [F,A,]4 [F,C]4 |[M:3/4] [B,,B,]6 |] %36

